X: 569
T: I Dreamt of My Love.
T: aislingui.g me air mo gra.d.
R:air
N:"With feeling" "Collected from J. O'Neill."
B:O'Neill 569
Z:Transcribed by J.B. Walsh, walsh@math.ubc.ca
M:C
L:1/8
%Q:50
K:Em
(GA)|{A}B2 E>F EFGA|B>cA>B G2 G>A|{A}B2 E>F E2 AG|FDEF D2 GF|
E3 D D2 B,D|G>A ((3BAG) A2 AG|A>B cA B3 A|G2 F>E E2||
B^d|e3 =d cBAG|A2 B>c B2 B^d|e3=d cBAG|F(G/A/ G/F/E/F/)D2 G>F|
E3 D D2 B,D|G>A ((3BAG) A2 A>G|ABcA B3A|G2 F>E E2||


